src/public/icons/network.svg

<svg width="30" height="30" viewBox="0 0 30 30" fill="none" xmlns="http://www.w3.org/2000/svg">
<path d="M24.3575 17.6801V12.6056C25.3147 12.2644 26 11.3623 26 10.2989C26 8.94247 24.887 7.84408 23.5137 7.84408C22.9335 7.84408 22.4001 8.04226 21.977 8.37175L17.3179 5.77969C17.3322 5.67301 17.342 5.56526 17.342 5.4548C17.342 4.09839 16.229 3 14.8558 3C13.4839 3 12.3695 4.09866 12.3695 5.4548C12.3695 5.57988 12.3821 5.70198 12.4002 5.82192L7.93494 8.30623C7.52691 8.01654 7.02757 7.84408 6.48628 7.84408C5.1144 7.84408 4 8.94247 4 10.2989C4 11.2841 4.58928 12.1307 5.43687 12.5214V17.7637C4.58928 18.1547 4 19.0015 4 19.9868C4 21.3432 5.1144 22.441 6.48628 22.441C7.14082 22.441 7.73421 22.1895 8.17816 21.7818L12.4068 24.1342C12.384 24.2682 12.3692 24.405 12.3692 24.5457C12.3692 25.9021 13.4836 27 14.8555 27C16.229 27 17.3418 25.9019 17.3418 24.5457C17.3418 24.4198 17.3292 24.2975 17.3108 24.177L21.7445 21.7103C22.1956 22.1611 22.8216 22.441 23.5134 22.441C24.887 22.441 25.9997 21.3429 25.9997 19.9868C26 18.9238 25.3147 18.0215 24.3575 17.6801ZM13.205 22.7142L8.94349 20.3433C8.96049 20.2266 8.97255 20.1083 8.97255 19.987C8.97255 18.8342 8.16692 17.8701 7.08186 17.6059V12.6795C7.47892 12.5831 7.83759 12.393 8.13401 12.1337L12.5631 14.7081C12.5409 14.8403 12.5263 14.9751 12.5263 15.1137C12.5263 16.1923 13.2324 17.1055 14.2114 17.435V22.1776C13.8327 22.278 13.4899 22.4638 13.205 22.7142ZM16.5984 13.2226C16.1681 12.8706 15.6156 12.6589 15.0132 12.6589C14.3773 12.6589 13.7984 12.8969 13.3586 13.2854L8.93471 10.7139C8.95802 10.5788 8.97283 10.4407 8.97283 10.2989C8.97283 10.072 8.9391 9.85324 8.88097 9.6445L13.1724 7.25711C13.6155 7.66079 14.2059 7.90932 14.856 7.90932C15.5221 7.90932 16.1256 7.64969 16.5718 7.22896L21.0938 9.74467C21.0521 9.92309 21.0277 10.108 21.0277 10.2991C21.0277 10.3806 21.0324 10.461 21.0401 10.5404L16.5984 13.2226ZM16.5383 22.7426C16.3384 22.5604 16.1092 22.4099 15.8569 22.3V17.4201C16.8142 17.0787 17.4994 16.1769 17.4994 15.1134C17.4994 14.9421 17.4816 14.775 17.4476 14.6134L21.7423 12.0194C22.0108 12.2888 22.3423 12.4954 22.7122 12.6202V17.6646C21.7335 17.9944 21.0272 18.9081 21.0272 19.9865C21.0272 20.0712 21.0316 20.1549 21.0401 20.2375L16.5383 22.7426Z" fill="#706B6D"/>
</svg>

<svg xmlns="http://www.w3.org/2000/svg" width="30" height="30" fill="none"><path fill="#706B6D" d="M24.358 17.68v-5.074A2.455 2.455 0 0 0 26 10.299c0-1.357-1.113-2.455-2.486-2.455-.58 0-1.114.198-1.537.528l-4.66-2.592q.024-.16.025-.325C17.342 4.098 16.229 3 14.856 3c-1.372 0-2.486 1.099-2.486 2.455q.001.187.03.367L7.935 8.306a2.5 2.5 0 0 0-1.449-.462C5.114 7.844 4 8.942 4 10.3c0 .985.59 1.832 1.437 2.222v5.243A2.45 2.45 0 0 0 4 19.987c0 1.356 1.114 2.454 2.486 2.454.655 0 1.248-.252 1.692-.66l4.229 2.353q-.036.2-.038.412c0 1.356 1.115 2.454 2.486 2.454 1.374 0 2.487-1.098 2.487-2.454 0-.126-.013-.248-.031-.369l4.433-2.467a2.5 2.5 0 0 0 1.77.731c1.373 0 2.486-1.098 2.486-2.454a2.45 2.45 0 0 0-1.642-2.307m-11.153 5.034-4.262-2.37a2.5 2.5 0 0 0 .03-.357 2.46 2.46 0 0 0-1.891-2.381v-4.927a2.5 2.5 0 0 0 1.052-.545l4.43 2.574a2.4 2.4 0 0 0-.038.406c0 1.078.706 1.991 1.685 2.321v4.743a2.5 2.5 0 0 0-1.006.536m3.393-9.491a2.5 2.5 0 0 0-1.585-.564 2.5 2.5 0 0 0-1.654.626l-4.424-2.571q.036-.202.038-.415a2.4 2.4 0 0 0-.092-.654l4.291-2.388a2.5 2.5 0 0 0 1.684.652c.666 0 1.27-.26 1.716-.68l4.522 2.516a2.4 2.4 0 0 0-.054.795zm-.06 9.52q-.301-.276-.681-.443v-4.88a2.455 2.455 0 0 0 1.59-2.807l4.295-2.594c.269.27.6.476.97.601v5.045a2.46 2.46 0 0 0-1.672 2.573z"/></svg>
